src/media/icons/telegram.svg

<svg width="24" height="24" viewBox="0 0 24 24" fill="none" xmlns="http://www.w3.org/2000/svg">
<path fill-rule="evenodd" clip-rule="evenodd" d="M2.51239 10.8488C8.41795 8.27585 12.3559 6.57959 14.3263 5.76003C19.9521 3.42005 21.1211 3.01357 21.883 3.00014C22.0506 2.99719 22.4253 3.03872 22.668 3.23567C22.873 3.40197 22.9294 3.62661 22.9563 3.78428C22.9833 3.94195 23.0169 4.30112 22.9902 4.58177C22.6854 7.78503 21.3662 15.5585 20.6951 19.1462C20.4111 20.6643 19.852 21.1733 19.3107 21.2231C18.1343 21.3314 17.2409 20.4457 16.1015 19.6988C14.3186 18.53 13.3113 17.8025 11.5807 16.662C9.58058 15.3439 10.8772 14.6195 12.017 13.4356C12.3153 13.1258 17.4986 8.41117 17.5989 7.98348C17.6115 7.92999 17.6231 7.7306 17.5046 7.62532C17.3862 7.52004 17.2114 7.55604 17.0852 7.58467C16.9064 7.62526 14.0581 9.50789 8.54035 13.2326C7.73187 13.7877 6.99958 14.0582 6.34347 14.044C5.62016 14.0284 4.2288 13.6351 3.19447 13.2988C1.92583 12.8865 0.91753 12.6684 1.00533 11.9681C1.05106 11.6033 1.55341 11.2302 2.51239 10.8488Z" fill="white"/>
</svg>

<svg xmlns="http://www.w3.org/2000/svg" fill="none" viewBox="0 0 24 24">
    <path fill="#fff" fill-rule="evenodd"
        d="M2.512 10.849c5.906-2.573 9.844-4.27 11.814-5.089 5.626-2.34 6.795-2.746 7.557-2.76.168-.003.542.039.785.236.205.166.261.39.288.548.027.158.06.517.034.798-.305 3.203-1.624 10.976-2.295 14.564-.284 1.518-.843 2.027-1.384 2.077-1.177.108-2.07-.777-3.21-1.524-1.782-1.169-2.79-1.897-4.52-3.037-2-1.318-.704-2.042.436-3.226.298-.31 5.482-5.025 5.582-5.453.012-.053.024-.252-.094-.358-.119-.105-.294-.069-.42-.04-.179.04-3.027 1.923-8.545 5.648-.808.555-1.54.825-2.197.811-.723-.016-2.114-.409-3.149-.745-1.268-.412-2.276-.63-2.189-1.33.046-.366.548-.739 1.507-1.12Z"
        clip-rule="evenodd" />
</svg>
